svg/color/maon.svg

<svg width="40" height="40" viewBox="0 0 40 40" fill="none" xmlns="http://www.w3.org/2000/svg">
<g clip-path="url(#clip0_821_3981)">
<path d="M20 0C31.0457 0 40 8.9543 40 20C40 31.0457 31.0457 40 20 40C8.95431 40 7.90517e-06 31.0457 0 20C6.58765e-07 8.95431 8.95431 1.97595e-06 20 0Z" fill="#CCCCCC"/>
<path d="M26 6C30.4183 6 34 9.58172 34 14V26C34 30.4183 30.4183 34 26 34H14C9.58172 34 6 30.4183 6 26V14C6 9.58172 9.58172 6 14 6H26Z" fill="black"/>
<path d="M19.4525 25.0259C19.5008 25.0667 19.5525 25.1076 19.6033 25.1476C18.6225 25.8001 17.445 26.1792 16.1808 26.1792C12.7667 26.1801 10 23.4134 10 20.0001C10 16.5876 12.7667 13.8201 16.18 13.8201C17.445 13.8201 18.6225 14.2001 19.6008 14.8517C19.5508 14.8942 19.5008 14.9334 19.4633 14.9767C18 16.2409 17.1625 18.0734 17.1625 20.0001C17.1625 21.9259 17.9967 23.7584 19.4525 25.0259ZM23.82 13.8201C22.5533 13.8201 21.3775 14.2001 20.3992 14.8517C20.4492 14.8942 20.4992 14.9334 20.5367 14.9767C22 16.2409 22.8375 18.0734 22.8375 20.0001C22.8375 21.9251 22.0033 23.7559 20.5475 25.0259C20.4992 25.0667 20.4475 25.1076 20.3967 25.1476C21.3775 25.8001 22.5533 26.1792 23.8192 26.1792C27.2333 26.1801 30 23.4134 30 20.0001C30 16.5884 27.2333 13.8201 23.82 13.8201ZM20 15.1451C19.92 15.2076 19.8425 15.2701 19.7667 15.3376C18.4633 16.4701 17.6408 18.1376 17.6408 20.0001C17.6408 21.8634 18.4633 23.5301 19.7667 24.6626C19.8417 24.7292 19.9208 24.7942 20 24.8559C20.08 24.7942 20.1575 24.7292 20.2333 24.6626C21.5358 23.5301 22.3592 21.8634 22.3592 20.0001C22.3592 18.1376 21.5367 16.4701 20.2333 15.3376C20.1583 15.2709 20.08 15.2076 20 15.1451Z" fill="white"/>
</g>
<defs>
<clipPath id="clip0_821_3981">
<rect width="40" height="40" fill="white"/>
</clipPath>
</defs>
</svg>

<svg xmlns="http://www.w3.org/2000/svg" width="40" height="40" fill="none" viewBox="0 0 40 40"><g clip-path="url(#maon_svg-a)"><path fill="#CCC" d="M20 0c11.046 0 20 8.954 20 20s-8.954 20-20 20S0 31.046 0 20 8.954 0 20 0"/><path fill="#000" d="M26 6a8 8 0 0 1 8 8v12a8 8 0 0 1-8 8H14a8 8 0 0 1-8-8V14a8 8 0 0 1 8-8z"/><path fill="#fff" d="m19.453 25.026.15.122a6.16 6.16 0 0 1-3.422 1.031 6.18 6.18 0 1 1 3.42-11.328c-.05.043-.1.082-.138.126a6.64 6.64 0 0 0-2.3 5.023c0 1.926.834 3.758 2.29 5.026M23.82 13.82c-1.267 0-2.442.38-3.42 1.032.05.042.1.081.137.125a6.64 6.64 0 0 1 2.3 5.023 6.67 6.67 0 0 1-2.29 5.026l-.15.122a6.16 6.16 0 0 0 3.422 1.031 6.18 6.18 0 0 0 0-12.36M20 15.145q-.12.093-.233.193A6.16 6.16 0 0 0 17.64 20 6.16 6.16 0 0 0 20 24.856q.12-.093.233-.193A6.16 6.16 0 0 0 22.36 20 6.16 6.16 0 0 0 20 15.145"/></g><defs><clipPath id="maon_svg-a"><path fill="#fff" d="M0 0h40v40H0z"/></clipPath></defs></svg>
